icons/js.svg

<svg width="16" height="16" viewBox="0 0 16 16" fill="none" xmlns="http://www.w3.org/2000/svg">
<path d="M5.95671 10.6297C6.04394 10.6354 6.13128 10.6204 6.2113 10.5859C6.29131 10.5514 6.36163 10.4984 6.41626 10.4316C6.53162 10.2648 6.58663 10.065 6.57251 9.86405V6.26087H7.62947V9.86405C7.63136 10.1753 7.56227 10.4831 7.42726 10.7648C7.29901 11.0181 7.0934 11.2259 6.83904 11.3594C6.55448 11.5008 6.23896 11.5719 5.91995 11.5666C5.60243 11.5779 5.2869 11.5129 5.00086 11.3774C4.75277 11.2581 4.54292 11.0742 4.39425 10.8459L5.22144 10.2874C5.30606 10.3924 5.41348 10.4776 5.5359 10.5368C5.65831 10.596 5.79265 10.6278 5.92914 10.6297M10.736 6.19782C10.9369 6.197 11.1373 6.21815 11.3334 6.26087C11.535 6.30622 11.7319 6.36954 11.9216 6.45004C12.1149 6.53128 12.2996 6.63084 12.4731 6.7473L12.0411 7.59405C11.8405 7.45594 11.6208 7.34673 11.3886 7.26976C11.1801 7.19226 10.959 7.15258 10.736 7.15266C10.487 7.13495 10.238 7.18813 10.0191 7.30579C9.94031 7.34596 9.87449 7.40685 9.82904 7.48163C9.78358 7.55641 9.76028 7.64213 9.76176 7.72917C9.75484 7.86116 9.80104 7.99054 9.89044 8.08949C9.98509 8.17786 10.0979 8.24542 10.2213 8.28766C10.3592 8.28766 10.543 8.36873 10.7728 8.42278H10.9198C11.2117 8.47396 11.4979 8.55239 11.7746 8.65699C12.0051 8.75382 12.205 8.90933 12.3536 9.10738C12.5295 9.37458 12.6103 9.69129 12.5834 10.0082C12.5969 10.3251 12.5137 10.6387 12.3444 10.909C12.1718 11.1591 11.9247 11.351 11.6367 11.4585C11.2825 11.5931 10.9044 11.6574 10.5246 11.6476C10.2711 11.6478 10.0184 11.6207 9.77095 11.5666C9.52986 11.5232 9.29521 11.4506 9.07244 11.3504C8.86335 11.2571 8.66848 11.1358 8.49341 10.99L8.96215 10.1703C9.17959 10.3395 9.42524 10.4705 9.68824 10.5577C9.95749 10.6477 10.2401 10.6934 10.5246 10.6928C10.7921 10.7069 11.0586 10.651 11.2967 10.5306C11.3812 10.4839 11.4513 10.4158 11.4998 10.3334C11.5483 10.251 11.5734 10.1573 11.5724 10.0622C11.5759 10.0017 11.5671 9.94108 11.5466 9.88387C11.5261 9.82667 11.4943 9.77401 11.4529 9.72893C11.3629 9.64327 11.2522 9.5813 11.1312 9.54877L10.6257 9.44068H10.5062C10.1939 9.39994 9.88621 9.33058 9.58714 9.23349C9.33904 9.12635 9.1305 8.94712 8.98973 8.72004C8.80608 8.45564 8.71866 8.13831 8.74157 7.81925C8.72528 7.50329 8.80527 7.18973 8.97134 6.91845C9.13487 6.66887 9.37212 6.47405 9.65147 6.35996C9.99825 6.23526 10.3671 6.18012 10.736 6.19782ZM13.0337 3H2.9237C2.67994 3 2.44617 3.0949 2.2738 3.26384C2.10144 3.43277 2.00461 3.66189 2.00461 3.90079V12.0079C1.99172 12.1336 2.00593 12.2605 2.04632 12.3804C2.0867 12.5003 2.15235 12.6105 2.23902 12.704C2.32569 12.7974 2.43143 12.8719 2.54938 12.9227C2.66733 12.9735 2.79487 12.9994 2.9237 12.9988H13.0337C13.1622 13.0053 13.2906 12.9852 13.4107 12.94C13.5308 12.8948 13.6398 12.8253 13.7308 12.7362C13.8218 12.647 13.8926 12.5401 13.9388 12.4225C13.9849 12.3048 14.0054 12.1789 13.9988 12.053V3.94583C13.9989 3.82365 13.9737 3.70272 13.9247 3.59038C13.8757 3.47805 13.8038 3.37667 13.7136 3.29241C13.6233 3.20814 13.5165 3.14276 13.3996 3.10024C13.2827 3.05771 13.1582 3.03893 13.0337 3.04504" fill="#FBB03B"/>
</svg>

<svg xmlns="http://www.w3.org/2000/svg" width="16" height="16" fill="none"><path fill="#FBB03B" d="M5.957 10.63a.552.552 0 0 0 .46-.198.888.888 0 0 0 .156-.568V6.261h1.056v3.603c.002.311-.067.62-.202.9a1.373 1.373 0 0 1-.588.595c-.285.142-.6.213-.92.208a1.983 1.983 0 0 1-.918-.19 1.498 1.498 0 0 1-.607-.531l.827-.559a.915.915 0 0 0 .708.343m4.807-4.432c.2-.001.401.02.597.063a3.437 3.437 0 0 1 1.14.486l-.432.847c-.2-.138-.42-.247-.652-.324a1.871 1.871 0 0 0-.653-.117 1.318 1.318 0 0 0-.717.153.474.474 0 0 0-.257.423.498.498 0 0 0 .128.36.922.922 0 0 0 .331.199c.138 0 .322.08.552.135h.147c.292.051.578.13.855.234.23.097.43.252.579.45.176.268.256.584.23.901.013.317-.07.63-.24.901-.172.25-.42.442-.707.55a2.92 2.92 0 0 1-1.112.189c-.254 0-.507-.027-.754-.081a2.998 2.998 0 0 1-.699-.217 2.49 2.49 0 0 1-.579-.36l.47-.82c.217.17.462.3.725.388.27.09.552.135.837.135.267.014.534-.042.772-.162a.536.536 0 0 0 .25-.647.457.457 0 0 0-.094-.155.748.748 0 0 0-.322-.18l-.505-.108h-.12c-.312-.041-.62-.11-.919-.208a1.316 1.316 0 0 1-.597-.513 1.402 1.402 0 0 1-.248-.9 1.57 1.57 0 0 1 .23-.902c.163-.25.4-.444.68-.558.346-.125.715-.18 1.084-.162ZM13.034 3H2.924a.929.929 0 0 0-.65.264.892.892 0 0 0-.27.637v8.107a.884.884 0 0 0 .235.696.92.92 0 0 0 .685.295h10.11a.936.936 0 0 0 .697-.263.9.9 0 0 0 .268-.683V3.946a.887.887 0 0 0-.285-.654.922.922 0 0 0-.68-.247"/></svg>
